X:1
T:046 I sing the mighty power of God
%%score { ( 1 3 ) | ( 2 4 ) }
L:1/8
M:2/2
K:Bb
V:1 treble nm="Piano"
V:3 treble 
V:2 bass 
V:4 bass 
V:1
 F2 | B2 AG F2 [FB]2 | D2 E2 F2 F2 | GA B2 c2 c2 | [Fd]6 F2 | B2 AG F2 [FB]2 | D2 E2 F2 F2 | %7
w: I|sing the * might- y|pow'r of God, that|made * the moun- tains|rise, that|spread the * flow- ing|seas a- broad and|
w: I|sing the * good- ness|of the Lord, that|filled * the earth with|food. God|formed the * crea- tures|with a word and|
w: There's|not a * plant or|flow'r be- low, but|makes * thy glo- ries|known, and|clouds a- * rise and|tem- pests blow, by|
 GA B2 B2 A2 | [FB]6 [DB][Ec] | [Fd]2 [Fc]2 [Fd]2 [Ge]2 | c2 AB c2 Bc | [Fd]2 [Fc]2 [Fd]2 [Ge]2 | %12
w: built * the loft- y|skies. I *|sing the wis- dom|that or- * dained the *|sun to rule the|
w: then * pro- nounced them|good. Lord, *|how thy won- ders|are dis- * played wher- *|e'er I turn my|
w: or- * der from thy|throne. While *|all that bor- rows|life from * thee is *|ev- er in thy|
 [Fc]6 F2 | B2 AG F2 [FB]2 | D2 E2 F2 F2 | GA B2 B2 A2 | [FB]6 |] %17
w: day. The|moon shines * full at|God's com- mand and|all * the stars o-|bey.|
w: eye, if|I sur- * vey the|ground I tread, or|gaze * up- on the|sky!|
w: care, there's|not a * place where|we can flee but|God * is pres- ent|there.|
V:2
 F,2 | B,2 A,G, F,2 [D,B,]2 | [G,B,]2 [G,B,]2 [F,A,]2 [B,,B,]2 | [E,B,]2 [D,B,]2 [E,B,]2 [F,A,]2 | %4
 [B,,B,]6 F,2 | B,2 A,G, F,2 [D,B,]2 | [G,B,]2 [G,B,]2 [F,A,]2 [B,,B,]2 | %7
 [E,B,]2 [G,B,]2 [F,C]2 [F,C]2 | [B,,D]6 B,2 | B,2 [A,C]2 B,2 [E,B,]2 | A,2 F,G, A,2 B,2 | %11
 B,2 [A,C]2 B,2 [E,B,]2 | [F,A,]6 F,2 | B,2 A,G, F,2 [D,B,]2 | [G,B,]2 [G,B,]2 [F,A,]2 [B,,B,]2 | %15
 [E,B,]2 [G,B,]2 [F,C]2 [F,C]2 | [B,,D]6 |] %17
V:3
 x2 | x8 | D2 CB, C2 D2 | E2 F2 G2 F2 | x8 | x8 | D2 CB, C2 D2 | E2 DE F2 F2 | x8 | x8 | %10
 F2 F2 F2 [DB][Ec] | x8 | x8 | x8 | D2 CB, C2 D2 | E2 DE F2 F2 | x6 |] %17
V:4
 x2 | x8 | x8 | x8 | x8 | x8 | x8 | x8 | x8 | x8 | F,2 F,2 F,2 B,2 | x8 | x8 | x8 | x8 | x8 | x6 |] %17

